ultrasound/ui/components/minted.svg

<svg width="24" height="24" viewBox="0 0 24 24" fill="none" xmlns="http://www.w3.org/2000/svg">
<path fill-rule="evenodd" clip-rule="evenodd" d="M12.4451 2.3963L12 2.06812L11.5549 2.3963C9.84836 3.65461 8.22055 5.82884 7.02366 8.14572C5.82769 10.4608 5 13.0384 5 15.15C5 17.2127 5.76728 18.8857 7.06527 20.0352C8.35213 21.1748 10.1027 21.75 12 21.75C13.8883 21.75 15.6379 21.2049 16.9276 20.0914C18.2313 18.9659 19 17.3143 19 15.25C19 13.1396 18.1731 10.5379 16.9779 8.19871C15.7821 5.85845 14.1543 3.65656 12.4451 2.3963ZM6.5 15.15C6.5 13.3715 7.21731 11.0391 8.35634 8.83418C9.18293 7.2341 10.1989 5.7645 11.25 4.66929V20.2133C9.96858 20.0856 8.86898 19.6289 8.05973 18.9122C7.10772 18.0692 6.5 16.8172 6.5 15.15ZM12.75 20.2151C14.0385 20.0929 15.1398 19.6532 15.9474 18.956C16.8937 18.139 17.5 16.9156 17.5 15.25C17.5 15.0386 17.4899 14.8192 17.4701 14.5927L12.75 17.4239V20.2151ZM12.75 15.6747V14.4246L16.9057 11.9312C17.0207 12.2949 17.1205 12.6534 17.2038 13.0033L12.75 15.6747ZM12.75 12.6753L16.3839 10.495C16.1635 9.95619 15.9149 9.41504 15.6421 8.88119C14.8151 7.26261 13.7995 5.77662 12.75 4.67444V12.6753Z" fill="#34EDB3"/>
</svg>

<svg width="24" height="24" fill="none" viewBox="0 0 24 24" xmlns="http://www.w3.org/2000/svg">
  <path fill="#34EDB3" fill-rule="evenodd" d="M12.445 2.396 12 2.068l-.445.328C9.848 3.655 8.22 5.83 7.024 8.146 5.828 10.46 5 13.038 5 15.15c0 2.063.767 3.736 2.065 4.885 1.287 1.14 3.038 1.715 4.935 1.715 1.888 0 3.638-.545 4.928-1.659C18.23 18.966 19 17.314 19 15.25c0-2.11-.827-4.712-2.022-7.051-1.196-2.34-2.824-4.542-4.533-5.803M6.5 15.15c0-1.779.717-4.11 1.856-6.316.827-1.6 1.843-3.07 2.894-4.165v15.544c-1.281-.127-2.381-.584-3.19-1.3-.952-.844-1.56-2.096-1.56-3.763m6.25 5.065c1.289-.122 2.39-.562 3.197-1.259.947-.817 1.553-2.04 1.553-3.706q0-.317-.03-.657l-4.72 2.83zm0-4.54v-1.25l4.156-2.494q.173.547.298 1.072zm0-3 3.634-2.18c-.22-.539-.47-1.08-.742-1.614-.827-1.618-1.842-3.104-2.892-4.207z" clip-rule="evenodd"/>
</svg>
